X:1
T:Title
%%score { 1 | 2 }
L:1/8
Q:1/4=94
M:4/4
K:F
V:1 treble nm="Grand Piano"
V:2 bass 
V:1
 c4 A2 F2 | E3 [EG] [EB]4 | [Ed]4 [Fc]2 [EB]2 | A3 B c4 | [Af]4 [FAc]2 [CFA]2 | %5
w: W.~J.~Bostwick * *|||||
 [B,DG]3 [DFB] [Fd]4 | [Ec]4 [EB]2 [EG]2 | F6 z2 | A4 G2 F2 | E3 [EG] [GB]4 | [GB]4 [FA]2 [B,EG]2 | %11
w: ||||||
 [A,F]3 [B,FG] [CFA]4 | [FAc]4 [CFA]2 [A,CF]2 | [B,DG]3 [DFB] [Fd]4 | [Ec]4 [EB]2 E2 | F6 z2 | %16
w: |||||
 A4 A2 [CFA]2 | [B,FB]3 [B,FB] [B,FB]4 | [CFc]4 [CFc]2 [CFc]2 | [Fd]6 z2 | [Ff]4 [Fe]2 [Fd]2 | %21
w: |||||
[M:5/4] [Fc]3 [G^c] [Fd]6 |[M:4/4] [FA]4 B2 E2 | F6 z2 |] %24
w: |||
V:2
 [F,A,F]4 [F,CF]2 [F,A,C]2 | [C,G,C]3 [C,C] [C,C]4 | [C,B,]4 [C,A,]2 [C,G,]2 | %3
 [F,F]3 [F,G,F] [F,A,F]4 | [F,C]4 F,2 F,2 | B,,3 B,, [B,,B,]4 | [C,G,]4 [C,G,]2 [C,B,]2 | %7
 [F,A,]6 z2 | [F,CF]4 [F,B,C]2 [F,A,C]2 | [C,G,C]3 [C,C] [C,C]4 | [C,C]4 [C,C]2 C,2 | F,3 F, F,4 | %12
 F,4 F,2 F,2 | B,,3 B,, [B,,B,]4 | [C,G,]4 [C,G,]2 [C,B,C]2 | [F,A,C]6 z2 | [F,CF]4 [F,CF]2 _E,2 | %17
 D,3 D, D,4 | A,,4 A,,2 A,,2 | [B,,B,]6 z2 | [B,,D]4 [B,,C]2 [B,,B,]2 | %21
[M:5/4] [F,A,]3 [E,A,] [D,A,]6 |[M:4/4] [C,C]4 [G,E]2 [C,B,C]2 | [F,A,C]6 z2 |] %24

